X: 1
T:Polska
R:Polska
O:Sweden
A:J\"amtland
C:e. Johan Abraham Olander, Fr\"os\"on
B:SvL J\&H1 \#303
M:3/4
K:DDor
vAB/^c/ cd d>A| ^FD ^CD EF/E/| D>^c ce ec| AB/A/ ^GA B^c/B/| \
 AB/^c/ cd d>A|^FD ^CD EF/E/| D>^c ce ec| AB/A/ ^GA B^c/B/| \
 AB/^c/ de fd| ef/g/ a2 (^c>e)| d2 D4::\
 AB/^c/ de f>d| ef/g/ a2 (fa)| gb/g/ eg/e/ ^cd| eg fe/d/ d^c|\
 AB/^c/ de f>d| ef/g/ a2 (fa)| gb/g/ eg/e/ ^cz/c/| AB/^c/ d4:|
